X: 66
T: Morrison's
R:Jig
M:6/8
K:Edor
"Em"E3 BEB|EBE "D"AFD|"Em"E3 BEB|"D"dcB AFD|
"Em"E3 BEB|EBE "D"AFD|"G"G2G FGA|1"D"dAG FED:|2"D"dAG FGA||
"Em"Bee fee|aee "D"fed|"Em"Bee fee|"D"a2g fed|
"Em"Bee fee|aee "D"fef|"Em"gfe "D"d2A|"G"BAG FGA|
"Em"Bee fee|aee "D"fed|"Em"Bee fee|"D"faf def|
"C"g2g gfe|"G"def g2 d|"D"edc d2 A|"G"BAG "D"FED||


